src/images/svg/symbols/markets-stocks-and-indices/american-stocks/stocks-teva-pharmaceutical-inds.svg

<svg width="32" height="32" viewBox="0 0 32 32" fill="none" xmlns="http://www.w3.org/2000/svg">
<path d="M0 16C0 7.16344 7.16344 0 16 0C24.8366 0 32 7.16344 32 16C32 24.8366 24.8366 32 16 32C7.16344 32 0 24.8366 0 16Z" fill="#D2EBDB"/>
<path d="M20.1212 15.9389V22.4311L17.6048 25.7054C17.4002 25.9742 17.0636 26.0681 16.7608 25.9495C16.4588 25.8303 16.257 25.5247 16.2598 25.1768L16.2725 21.0599L20.1212 15.9389Z" fill="#204E77"/>
<path d="M23.9804 10.805L23.9691 13.1492C24.0093 14.3524 23.809 15.7376 23.3362 17.1419C22.9036 18.4248 22.339 19.5525 21.67 20.4169L20.1211 22.4316V15.9395L23.9804 10.805Z" fill="#35786E"/>
<path d="M20.1211 9.47974L22.6552 6.19626C22.8598 5.9274 23.1957 5.83354 23.4984 5.95209C23.8012 6.07135 24.0023 6.3762 23.9995 6.7248L23.9804 10.805L20.1211 15.9395V9.47974Z" fill="#9FD142"/>
<path d="M16.2734 21.0605L16.2819 18.2978C16.284 17.1716 16.5169 15.9134 16.9495 14.6305C17.4406 13.1697 18.147 11.9292 18.9289 11.0259L20.1222 9.47978V15.9395L16.2734 21.0605Z" fill="#269E75"/>
<path d="M8.01953 10.805L8.03082 13.1492C7.99059 14.3524 8.19032 15.7376 8.66383 17.1419C9.0964 18.4248 9.66091 19.5525 10.3299 20.4169L11.8782 22.4316V15.9395L8.01953 10.805Z" fill="#35786E"/>
<path d="M11.8789 15.9389V22.4311L14.3953 25.7054C14.6 25.9742 14.9366 26.0681 15.2393 25.9495C15.5414 25.8303 15.7431 25.5247 15.7403 25.1768L15.7276 21.0599L11.8789 15.9389Z" fill="#204E77"/>
<path d="M15.7277 21.0605L15.7192 18.2978C15.7171 17.1716 15.4842 15.9134 15.0516 14.6305C14.5605 13.1697 13.8541 11.9292 13.0722 11.0259L11.8789 9.47978V15.9395L15.7277 21.0605Z" fill="#269E75"/>
<path d="M11.8784 9.47974L9.34431 6.19626C9.13967 5.9274 8.80376 5.83354 8.50103 5.95209C8.199 6.07135 7.99721 6.3762 8.00003 6.7248L8.01976 10.805L11.8784 15.9395V9.47974Z" fill="#9FD142"/>
</svg>

<svg width="32" height="32" fill="none" xmlns="http://www.w3.org/2000/svg"><path d="M0 16C0 7.163 7.163 0 16 0s16 7.163 16 16-7.163 16-16 16S0 24.837 0 16Z" fill="#D2EBDB"/><path d="M20.121 15.939v6.492l-2.516 3.274a.719.719 0 0 1-.844.245.815.815 0 0 1-.501-.773l.012-4.117 3.85-5.121Z" fill="#204E77"/><path d="m23.98 10.805-.01 2.344c.04 1.203-.161 2.589-.634 3.993-.432 1.283-.997 2.41-1.666 3.275l-1.549 2.015V15.94l3.86-5.135Z" fill="#35786E"/><path d="m20.121 9.48 2.534-3.284a.718.718 0 0 1 .843-.244c.303.12.504.424.502.773l-.02 4.08-3.859 5.135V9.48Z" fill="#9FD142"/><path d="m16.273 21.06.009-2.762c.002-1.126.235-2.385.668-3.667.49-1.461 1.197-2.702 1.979-3.605l1.193-1.546v6.46l-3.849 5.12Z" fill="#269E75"/><path d="m8.02 10.805.01 2.344c-.04 1.203.16 2.589.634 3.993.432 1.283.997 2.41 1.666 3.275l1.548 2.015V15.94L8.02 10.805Z" fill="#35786E"/><path d="M11.879 15.939v6.492l2.516 3.274a.72.72 0 0 0 .844.245.814.814 0 0 0 .501-.773l-.012-4.117-3.85-5.121Z" fill="#204E77"/><path d="m15.728 21.06-.009-2.762c-.002-1.126-.235-2.385-.667-3.667-.492-1.461-1.198-2.702-1.98-3.605L11.88 9.48v6.46l3.849 5.12Z" fill="#269E75"/><path d="M11.878 9.48 9.344 6.196a.718.718 0 0 0-.843-.244.814.814 0 0 0-.501.773l.02 4.08 3.858 5.135V9.48Z" fill="#9FD142"/></svg>
